X: 28539
T: Munster, The
R: jig
M: 6/8
K: Gmajor
G3 AGA|B2g gdB|GAB c2A|BGE EDE|
G3 AGA|B2g gdB|cBA BdB|AGF G2D:|
g3 efg|eag fed|gfg efg|afd d2f|
gfe agf|gfe fdB|cBA BdB|AGF GBd:|

